austria/municipalities/20306.svg

<svg xmlns="http://www.w3.org/2000/svg" width="850" height="855" style="shape-rendering:geometricPrecision;text-rendering:geometricPrecision;image-rendering:optimizeQuality;fill-rule:evenodd;clip-rule:evenodd"><path style="opacity:1" fill="#5b5859" d="M836.5 15.5c-274.998-2-550.331-2.666-826-2v6c-.968-2.107-1.302-4.44-1-7h828c.237 1.291-.096 2.291-1 3z"/><path style="opacity:1" fill="#262323" d="M836.5 15.5a91113.866 91113.866 0 0 1-31.5 455c-8.755 136.763-70.255 241.929-184.5 315.5-109.034 62.419-222.367 71.419-340 27-22.933-9.462-44.6-20.962-65-34.5-.473-1.406-1.473-2.073-3-2-.473-1.406-1.473-2.073-3-2a434.9 434.9 0 0 1-21-14.5 59.403 59.403 0 0 1-8-7.5c-.473-1.406-1.473-2.073-3-2-72.922-63.14-116.756-142.807-131.5-239a497.228 497.228 0 0 1-4-37 121653.132 121653.132 0 0 1-31.5-455v-6c275.669-.666 551.002 0 826 2z"/><path style="opacity:1" fill="#00a54f" d="M29.5 30.5c242.667-.167 485.334 0 728 .5-13.925 18.593-29.925 35.26-48 50a595.622 595.622 0 0 0-81 56c-15.075 13.062-27.909 27.896-38.5 44.5-13.094 29.101-31.594 54.268-55.5 75.5a566.15 566.15 0 0 1-25 20 1689.049 1689.049 0 0 0-64 45c-39.575 31.3-69.408 70.134-89.5 116.5-15.121 24.121-34.621 43.955-58.5 59.5a881.557 881.557 0 0 0-59 36c-28.317 23.525-51.817 51.025-70.5 82.5a943.94 943.94 0 0 0-33 63c-45.193-61.101-70.193-129.768-75-206a111187.233 111187.233 0 0 1-30.5-443z"/><path style="opacity:1" fill="#fdfdfd" d="M769.5 30.5h48a253041.693 253041.693 0 0 1-32.5 464C769.843 615.427 711.01 707.927 608.5 772c-101.649 57.208-207.316 65.875-317 26-57.928-23.379-107.094-58.879-147.5-106.5-1.816-3.781-1.483-7.447 1-11 20.861-48.923 50.028-92.09 87.5-129.5a203.94 203.94 0 0 1 15-12 1092.137 1092.137 0 0 1 54-32c28.073-18.404 50.24-42.237 66.5-71.5 10.575-23.507 23.908-45.173 40-65a864.483 864.483 0 0 1 35.5-34.5 3662.201 3662.201 0 0 1 83-60c18.206-13.872 34.039-30.039 47.5-48.5a457.52 457.52 0 0 0 25-43c17.167-23.833 37.667-44.333 61.5-61.5a973.757 973.757 0 0 1 50-32c22.937-17.102 42.604-37.269 59-60.5z"/><path style="opacity:1" fill="#262423" d="M223.5 121.5c34.002-.167 68.002 0 102 .5 18.171 3.504 29.004 14.337 32.5 32.5 2.217 14.677-2.617 26.51-14.5 35.5a309.747 309.747 0 0 0-35.5 26.5 39.748 39.748 0 0 0-7.5 15c1.389 6.527 5.389 9.361 12 8.5 11.343-4.67 21.343-11.337 30-20 12.979-9.321 27.312-15.654 43-19 26.325-3.996 39.158 7.17 38.5 33.5-6.642 22.388-7.976 45.055-4 68 5.191 28.133-6.309 40.966-34.5 38.5-12.521-1.932-23.854-6.598-34-14a356.549 356.549 0 0 1-24-21c-7.548-6.438-16.214-8.771-26-7-5.257 2.256-8.757 6.09-10.5 11.5a322.712 322.712 0 0 0-2.5 47 1488.132 1488.132 0 0 0 5 110.5l-.5 9.5-2.5 2.5c-10 .667-20 .667-30 0l-2.5-2.5c1.266-30.651 2.599-61.318 4-92a545.056 545.056 0 0 0-2-75c-2.693-8.52-8.526-12.52-17.5-12-7.212.272-13.545 2.772-19 7.5a193.7 193.7 0 0 1-37 29c-13.537 5.776-27.537 7.442-42 5-7.532-3.528-12.032-9.361-13.5-17.5.777-17.663 1.444-35.33 2-53a500.637 500.637 0 0 0-6.5-40.5c.642-17.474 9.642-26.974 27-28.5 26.435 1.97 49.102 12.137 68 30.5a93.76 93.76 0 0 0 16 9c9.04 1.255 13.207-2.578 12.5-11.5-3.622-8.956-9.455-16.123-17.5-21.5a155.403 155.403 0 0 1-33.5-25.5c-8.449-14.184-8.449-28.517 0-43 6.268-8.539 14.434-14.206 24.5-17z"/><path style="opacity:1" fill="#fdfdfd" d="M224.5 127.5c33.002-.167 66.002 0 99 .5 20.767 4.331 30.267 17.164 28.5 38.5a54.628 54.628 0 0 1-2 7 119.16 119.16 0 0 1-12.5 13.5 468.212 468.212 0 0 0-30 21c-7.073 6.312-11.406 14.145-13 23.5.402 7.303 4.069 12.136 11 14.5 4.828.629 9.495-.038 14-2a302.51 302.51 0 0 0 34-24 111.634 111.634 0 0 1 29-12c26.571-5.758 38.071 4.742 34.5 31.5-5.889 20.791-6.889 41.791-3 63a100.2 100.2 0 0 1 0 20c-3.257 9.723-10.091 14.056-20.5 13-13.678-.281-26.011-4.448-37-12.5l-30-25c-29.438-12.519-43.938-2.685-43.5 29.5a1198.864 1198.864 0 0 0 4.5 147h-24a1167.455 1167.455 0 0 0 3.5-158c-.157-12.176-5.99-20.01-17.5-23.5-5.753-.851-11.42-.517-17 1-11.086 5.414-20.753 12.747-29 22-16.17 15.057-35.17 21.057-57 18-5.207-2.565-8.374-6.732-9.5-12.5a444.424 444.424 0 0 0 2-57 332.507 332.507 0 0 1-5.5-35.5c-.172-13.83 6.661-21.33 20.5-22.5 16.845 1.17 32.345 6.337 46.5 15.5a270.137 270.137 0 0 0 22 17c6.736 5.542 14.403 7.876 23 7 9.561-4.291 12.727-11.458 9.5-21.5a60.147 60.147 0 0 0-10-15 523.42 523.42 0 0 0-31.5-22.5c-16.791-12.823-19.624-28.323-8.5-46.5 5.172-6.491 11.672-10.824 19.5-13z"/><path style="opacity:1" fill="#231f20" d="M799.5 137.5c.647.774.98 1.774 1 3a16869.835 16869.835 0 0 0-14 195c-63.004.333-126.004 0-189-1a3884.85 3884.85 0 0 1 41.5-62c15.579-20.246 33.745-37.746 54.5-52.5a1589.315 1589.315 0 0 0 77-52c10.911-9.075 20.578-19.242 29-30.5z"/><path style="opacity:1" fill="#282425" d="M273.5 182.5c1.517.011 2.684.677 3.5 2a57.56 57.56 0 0 1 3 8 205.527 205.527 0 0 0 8 51c2.789 7.755 7.956 13.255 15.5 16.5 1.074.739 1.741 1.739 2 3-7.033 5.022-13.533 10.855-19.5 17.5a362.05 362.05 0 0 0-11 23 797 797 0 0 0-10-25c-4.738-5.617-10.572-9.617-17.5-12-1.131-1.574-1.298-3.241-.5-5 9.102-5.188 15.102-12.855 18-23a194.544 194.544 0 0 0 5-46c.331-3.655 1.498-6.988 3.5-10z"/><path style="opacity:1" fill="#6f6d6e" d="m276.5 218.5-2-1a12.93 12.93 0 0 1 .5-5 10.098 10.098 0 0 1 1.5 6z"/><path style="opacity:1" fill="#f9f9f9" d="m274.5 217.5 2 1c.151 15.122 4.817 28.622 14 40.5l6 4c-8.906 5.739-15.906 13.239-21 22.5-4.934-8.933-11.601-16.266-20-22 12.945-12.479 19.278-27.812 19-46z"/><path style="opacity:1" fill="#231f20" d="M567.5 361.5h217a5008.424 5008.424 0 0 1-9.5 133 443.85 443.85 0 0 1-14.5 67 23940.557 23940.557 0 0 1-379 .5 339.9 339.9 0 0 0 33.5-40.5l46-70c11.341-16.681 24.841-31.514 40.5-44.5a4069.426 4069.426 0 0 1 66-45.5zM351.5 588.5c133.334-.167 266.667 0 400 .5-46.482 111.437-128.148 182.77-245 214-105.488 23.452-202.322 4.286-290.5-57.5 10.314-35.295 26.981-67.295 50-96 7.942-8.948 16.775-16.781 26.5-23.5a1135.664 1135.664 0 0 1 39-23 313.585 313.585 0 0 0 20-14.5z"/><path style="opacity:1" fill="#8d8b8c" d="M177.5 750.5c1.527-.073 2.527.594 3 2-1.527.073-2.527-.594-3-2z"/><path style="opacity:1" fill="#918f90" d="M209.5 774.5c1.527-.073 2.527.594 3 2-1.527.073-2.527-.594-3-2z"/><path style="opacity:1" fill="#979596" d="M212.5 776.5c1.527-.073 2.527.594 3 2-1.527.073-2.527-.594-3-2z"/></svg>

<?xml version="1.0" encoding="UTF-8"?>
<!DOCTYPE svg PUBLIC "-//W3C//DTD SVG 1.1//EN" "http://www.w3.org/Graphics/SVG/1.1/DTD/svg11.dtd">
<svg xmlns="http://www.w3.org/2000/svg" version="1.1" width="850px" height="855px" style="shape-rendering:geometricPrecision; text-rendering:geometricPrecision; image-rendering:optimizeQuality; fill-rule:evenodd; clip-rule:evenodd" xmlns:xlink="http://www.w3.org/1999/xlink">
<g><path style="opacity:1" fill="#5b5859" d="M 836.5,15.5 C 561.502,13.5008 286.169,12.8341 10.5,13.5C 10.5,15.5 10.5,17.5 10.5,19.5C 9.53178,17.3926 9.19845,15.0593 9.5,12.5C 285.5,12.5 561.5,12.5 837.5,12.5C 837.737,13.791 837.404,14.791 836.5,15.5 Z"/></g>
<g><path style="opacity:1" fill="#262323" d="M 836.5,15.5 C 826.38,167.187 815.88,318.854 805,470.5C 796.245,607.263 734.745,712.429 620.5,786C 511.466,848.419 398.133,857.419 280.5,813C 257.567,803.538 235.9,792.038 215.5,778.5C 215.027,777.094 214.027,776.427 212.5,776.5C 212.027,775.094 211.027,774.427 209.5,774.5C 202.38,769.887 195.38,765.054 188.5,760C 185.568,757.715 182.902,755.215 180.5,752.5C 180.027,751.094 179.027,750.427 177.5,750.5C 104.578,687.36 60.7443,607.693 46,511.5C 44.205,499.217 42.8717,486.884 42,474.5C 31.2153,322.847 20.7153,171.181 10.5,19.5C 10.5,17.5 10.5,15.5 10.5,13.5C 286.169,12.8341 561.502,13.5008 836.5,15.5 Z"/></g>
<g><path style="opacity:1" fill="#00a54f" d="M 29.5,30.5 C 272.167,30.3333 514.834,30.5 757.5,31C 743.575,49.5927 727.575,66.2594 709.5,81C 680.932,97.4463 653.932,116.113 628.5,137C 613.425,150.062 600.591,164.896 590,181.5C 576.906,210.601 558.406,235.768 534.5,257C 526.349,263.907 518.016,270.574 509.5,277C 487.816,291.508 466.483,306.508 445.5,322C 405.925,353.3 376.092,392.134 356,438.5C 340.879,462.621 321.379,482.455 297.5,498C 277.333,509.247 257.666,521.247 238.5,534C 210.183,557.525 186.683,585.025 168,616.5C 156.19,637.121 145.19,658.121 135,679.5C 89.8074,618.399 64.8074,549.732 60,473.5C 49.5376,325.841 39.3709,178.174 29.5,30.5 Z"/></g>
<g><path style="opacity:1" fill="#fdfdfd" d="M 769.5,30.5 C 785.5,30.5 801.5,30.5 817.5,30.5C 806.809,185.172 795.976,339.838 785,494.5C 769.843,615.427 711.01,707.927 608.5,772C 506.851,829.208 401.184,837.875 291.5,798C 233.572,774.621 184.406,739.121 144,691.5C 142.184,687.719 142.517,684.053 145,680.5C 165.861,631.577 195.028,588.41 232.5,551C 237.317,546.76 242.317,542.76 247.5,539C 265.17,527.83 283.17,517.163 301.5,507C 329.573,488.596 351.74,464.763 368,435.5C 378.575,411.993 391.908,390.327 408,370.5C 419.529,358.637 431.362,347.137 443.5,336C 470.887,315.613 498.554,295.613 526.5,276C 544.706,262.128 560.539,245.961 574,227.5C 583.091,213.658 591.424,199.325 599,184.5C 616.167,160.667 636.667,140.167 660.5,123C 676.827,111.834 693.494,101.168 710.5,91C 733.437,73.898 753.104,53.7313 769.5,30.5 Z"/></g>
<g><path style="opacity:1" fill="#262423" d="M 223.5,121.5 C 257.502,121.333 291.502,121.5 325.5,122C 343.671,125.504 354.504,136.337 358,154.5C 360.217,169.177 355.383,181.01 343.5,190C 331.041,197.981 319.208,206.814 308,216.5C 304.435,220.963 301.935,225.963 300.5,231.5C 301.889,238.027 305.889,240.861 312.5,240C 323.843,235.33 333.843,228.663 342.5,220C 355.479,210.679 369.812,204.346 385.5,201C 411.825,197.004 424.658,208.17 424,234.5C 417.358,256.888 416.024,279.555 420,302.5C 425.191,330.633 413.691,343.466 385.5,341C 372.979,339.068 361.646,334.402 351.5,327C 343.204,320.373 335.204,313.373 327.5,306C 319.952,299.562 311.286,297.229 301.5,299C 296.243,301.256 292.743,305.09 291,310.5C 289.023,326.097 288.19,341.763 288.5,357.5C 288.798,394.404 290.464,431.237 293.5,468C 293.333,471.167 293.167,474.333 293,477.5C 292.167,478.333 291.333,479.167 290.5,480C 280.5,480.667 270.5,480.667 260.5,480C 259.667,479.167 258.833,478.333 258,477.5C 259.266,446.849 260.599,416.182 262,385.5C 263.056,360.448 262.389,335.448 260,310.5C 257.307,301.98 251.474,297.98 242.5,298.5C 235.288,298.772 228.955,301.272 223.5,306C 212.314,317.193 199.98,326.859 186.5,335C 172.963,340.776 158.963,342.442 144.5,340C 136.968,336.472 132.468,330.639 131,322.5C 131.777,304.837 132.444,287.17 133,269.5C 131.38,255.869 129.213,242.369 126.5,229C 127.142,211.526 136.142,202.026 153.5,200.5C 179.935,202.47 202.602,212.637 221.5,231C 226.51,234.507 231.843,237.507 237.5,240C 246.54,241.255 250.707,237.422 250,228.5C 246.378,219.544 240.545,212.377 232.5,207C 220.197,200.035 209.03,191.535 199,181.5C 190.551,167.316 190.551,152.983 199,138.5C 205.268,129.961 213.434,124.294 223.5,121.5 Z"/></g>
<g><path style="opacity:1" fill="#fdfdfd" d="M 224.5,127.5 C 257.502,127.333 290.502,127.5 323.5,128C 344.267,132.331 353.767,145.164 352,166.5C 351.489,168.878 350.822,171.212 350,173.5C 346.201,178.301 342.034,182.801 337.5,187C 327.223,193.611 317.223,200.611 307.5,208C 300.427,214.312 296.094,222.145 294.5,231.5C 294.902,238.803 298.569,243.636 305.5,246C 310.328,246.629 314.995,245.962 319.5,244C 331.388,236.778 342.721,228.778 353.5,220C 362.612,214.63 372.279,210.63 382.5,208C 409.071,202.242 420.571,212.742 417,239.5C 411.111,260.291 410.111,281.291 414,302.5C 414.667,309.167 414.667,315.833 414,322.5C 410.743,332.223 403.909,336.556 393.5,335.5C 379.822,335.219 367.489,331.052 356.5,323C 346.5,314.667 336.5,306.333 326.5,298C 297.062,285.481 282.562,295.315 283,327.5C 281.492,376.603 282.992,425.603 287.5,474.5C 279.5,474.5 271.5,474.5 263.5,474.5C 268.236,421.905 269.402,369.239 267,316.5C 266.843,304.324 261.01,296.49 249.5,293C 243.747,292.149 238.08,292.483 232.5,294C 221.414,299.414 211.747,306.747 203.5,316C 187.33,331.057 168.33,337.057 146.5,334C 141.293,331.435 138.126,327.268 137,321.5C 138.885,302.598 139.552,283.598 139,264.5C 136.524,252.748 134.691,240.914 133.5,229C 133.328,215.17 140.161,207.67 154,206.5C 170.845,207.67 186.345,212.837 200.5,222C 207.548,228.049 214.881,233.716 222.5,239C 229.236,244.542 236.903,246.876 245.5,246C 255.061,241.709 258.227,234.542 255,224.5C 252.411,218.984 249.078,213.984 245,209.5C 234.778,201.612 224.278,194.112 213.5,187C 196.709,174.177 193.876,158.677 205,140.5C 210.172,134.009 216.672,129.676 224.5,127.5 Z"/></g>
<g><path style="opacity:1" fill="#231f20" d="M 799.5,137.5 C 800.147,138.274 800.48,139.274 800.5,140.5C 795.457,205.471 790.79,270.471 786.5,335.5C 723.496,335.833 660.496,335.5 597.5,334.5C 611.137,313.697 624.971,293.03 639,272.5C 654.579,252.254 672.745,234.754 693.5,220C 719.685,203.409 745.352,186.076 770.5,168C 781.411,158.925 791.078,148.758 799.5,137.5 Z"/></g>
<g><path style="opacity:1" fill="#282425" d="M 273.5,182.5 C 275.017,182.511 276.184,183.177 277,184.5C 278.197,187.089 279.197,189.756 280,192.5C 280.528,209.868 283.195,226.868 288,243.5C 290.789,251.255 295.956,256.755 303.5,260C 304.574,260.739 305.241,261.739 305.5,263C 298.467,268.022 291.967,273.855 286,280.5C 282.045,288.076 278.378,295.743 275,303.5C 271.823,295.15 268.49,286.816 265,278.5C 260.262,272.883 254.428,268.883 247.5,266.5C 246.369,264.926 246.202,263.259 247,261.5C 256.102,256.312 262.102,248.645 265,238.5C 268.494,223.388 270.161,208.055 270,192.5C 270.331,188.845 271.498,185.512 273.5,182.5 Z"/></g>
<g><path style="opacity:1" fill="#6f6d6e" d="M 276.5,218.5 C 275.833,218.167 275.167,217.833 274.5,217.5C 274.34,215.801 274.506,214.134 275,212.5C 276.128,214.345 276.628,216.345 276.5,218.5 Z"/></g>
<g><path style="opacity:1" fill="#f9f9f9" d="M 274.5,217.5 C 275.167,217.833 275.833,218.167 276.5,218.5C 276.651,233.622 281.317,247.122 290.5,259C 292.5,260.333 294.5,261.667 296.5,263C 287.594,268.739 280.594,276.239 275.5,285.5C 270.566,276.567 263.899,269.234 255.5,263.5C 268.445,251.021 274.778,235.688 274.5,217.5 Z"/></g>
<g><path style="opacity:1" fill="#231f20" d="M 567.5,361.5 C 639.833,361.5 712.167,361.5 784.5,361.5C 781.923,405.878 778.757,450.211 775,494.5C 771.882,517.261 767.049,539.595 760.5,561.5C 634.168,562.667 507.835,562.833 381.5,562C 393.741,549.33 404.907,535.83 415,521.5C 430.333,498.167 445.667,474.833 461,451.5C 472.341,434.819 485.841,419.986 501.5,407C 523.404,391.58 545.404,376.413 567.5,361.5 Z"/></g>
<g><path style="opacity:1" fill="#231f20" d="M 351.5,588.5 C 484.834,588.333 618.167,588.5 751.5,589C 705.018,700.437 623.352,771.77 506.5,803C 401.012,826.452 304.178,807.286 216,745.5C 226.314,710.205 242.981,678.205 266,649.5C 273.942,640.552 282.775,632.719 292.5,626C 305.335,618.081 318.335,610.415 331.5,603C 338.411,598.39 345.078,593.557 351.5,588.5 Z"/></g>
<g><path style="opacity:1" fill="#8d8b8c" d="M 177.5,750.5 C 179.027,750.427 180.027,751.094 180.5,752.5C 178.973,752.573 177.973,751.906 177.5,750.5 Z"/></g>
<g><path style="opacity:1" fill="#918f90" d="M 209.5,774.5 C 211.027,774.427 212.027,775.094 212.5,776.5C 210.973,776.573 209.973,775.906 209.5,774.5 Z"/></g>
<g><path style="opacity:1" fill="#979596" d="M 212.5,776.5 C 214.027,776.427 215.027,777.094 215.5,778.5C 213.973,778.573 212.973,777.906 212.5,776.5 Z"/></g>
</svg>
